images/icon-twitter.svg

<svg height="20" viewBox="0 0 20 20" width="20" xmlns="http://www.w3.org/2000/svg"><path d="m18.5 4.67078024c-.6438879.28338659-1.335784.47497905-2.0621182.5610559.7413128-.44092946 1.3106277-1.13926364 1.5786422-1.97125515-.6936885.40834095-1.462014.70481376-2.279884.86464354-.6548978-.69248984-1.5879879-1.12522453-2.6206153-1.12522453-1.9829364 0-3.59044769 1.59537565-3.59044769 3.56300986 0 .27932097.03174952.55120947.09294415.81198103-2.98387834-.14858579-5.62939391-1.56710687-7.40019752-3.72277612-.30904569.52624401-.48610044 1.13831076-.48610044 1.79128784 0 1.23613979.6338381 2.32674301 1.59720546 2.96574451-.58851824-.01848587-1.14215041-.17882386-1.6262025-.44569386-.00025604.01486494-.00032006.02979339-.00032006.04478538 0 1.72636492 1.23759099 3.16648466 2.88005231 3.49383076-.30130034.081376-.61847544.1248908-.94589231.1248908-.2314002 0-.45627126-.0222974-.67550935-.0639065.45691137 1.4155989 1.7828377 2.445726 3.35386261 2.4745665-1.22875745.9556119-2.77680237 1.5251802-4.45895058 1.5251802-.28977834 0-.57558799-.0168342-.85646878-.0497404 1.58894802 1.0109425 3.47612385 1.6007753 5.50367607 1.6007753 6.60396323 0 10.21521453-5.4292576 10.21521453-10.13775656 0-.15449365-.0035206-.30816147-.0103698-.46093994.7014338-.50235847 1.3101156-1.12992541 1.7914792-1.84445856" fill="#fff" fill-rule="evenodd"/></svg>

<?xml version="1.0" encoding="UTF-8" standalone="no"?>
<svg width="20px" height="20px" viewBox="0 0 20 20" version="1.1" xmlns="http://www.w3.org/2000/svg" xmlns:xlink="http://www.w3.org/1999/xlink">
    <!-- Generator: Sketch 41 (35326) - http://www.bohemiancoding.com/sketch -->
    <title>icon-twitter</title>
    <desc>Created with Sketch.</desc>
    <defs></defs>
    <g id="Page-1" stroke="none" stroke-width="1" fill="none" fill-rule="evenodd">
        <g id="icon-twitter" fill="#FFFFFF">
            <path d="M18.5,4.67078024 C17.8561121,4.95416683 17.164216,5.14575929 16.4378818,5.23183614 C17.1791946,4.79090668 17.7485095,4.0925725 18.016524,3.26058099 C17.3228355,3.66892194 16.55451,3.96539475 15.73664,4.12522453 C15.0817422,3.43273469 14.1486521,3 13.1160247,3 C11.1330883,3 9.52557701,4.59537565 9.52557701,6.56300986 C9.52557701,6.84233083 9.55732653,7.11421933 9.61852116,7.37499089 C6.63464282,7.2264051 3.98912725,5.80788402 2.21832364,3.65221477 C1.90927795,4.17845878 1.7322232,4.79052553 1.7322232,5.44350261 C1.7322232,6.6796424 2.3660613,7.77024562 3.32942866,8.40924712 C2.74091042,8.39076125 2.18727825,8.23042326 1.70322616,7.96355326 C1.70297012,7.9784182 1.7029061,7.99334665 1.7029061,8.00833864 C1.7029061,9.73470356 2.94049709,11.1748233 4.58295841,11.5021694 C4.28165807,11.5835454 3.96448297,11.6270602 3.6370661,11.6270602 C3.4056659,11.6270602 3.18079484,11.6047628 2.96155675,11.5631537 C3.41846812,12.9787526 4.74439445,14.0088797 6.31541936,14.0377202 C5.08666191,14.9933321 3.53861699,15.5629004 1.85646878,15.5629004 C1.56669044,15.5629004 1.28088079,15.5460662 1,15.51316 C2.58894802,16.5241025 4.47612385,17.1139353 6.50367607,17.1139353 C13.1076393,17.1139353 16.7188906,11.6846777 16.7188906,6.97617874 C16.7188906,6.82168509 16.71537,6.66801727 16.7085208,6.5152388 C17.4099546,6.01288033 18.0186364,5.38531339 18.5,4.67078024"></path>
        </g>
    </g>
</svg>
